!!!!SEGMENT: Jos/Jos0703c-Missa_Dung_aultre_amer-Credo.krn
!!!COM: Josquin des Prez
!!!CDT: ~1450-1521/08/27
!!!OPR: Missa D'ung aultre amer--Tu solus
!!!ONM: 3
!!!OTL: Credo
!!!AGN: Mass; Credo; Missa Brevis
!!!SCT: NJE 7.3
!!!SCA: New Josquin Edition 7.3
!!!jrpid: Jos0703c
!!!voices: 4
!!!voices-OPR: 4
**kern	**text	**kern	**text	**kern	**text	**kern	**text
*staff4	*	*staff3	*	*staff2	*	*staff1	*
*Ivox	*	*Ivox	*	*Ivox	*	*Ivox	*
*I"Bassus	*	*I"Tenor	*	*I"Altus	*	*I"Superius	*
*I'B	*	*I'T	*	*I'A	*	*I'S	*
*clefF4	*	*clefGv2	*	*clefGv2	*	*clefG2	*
*k[b-]	*	*k[b-]	*	*k[b-]	*	*k[b-]	*
*M2/1	*	*M2/1	*	*M2/1	*	*M2/1	*
*met(C|)	*	*met(C|)	*	*met(C|)	*	*met(C|)	*
*MM260	*	*MM260	*	*MM260	*	*MM260	*
=1-	=1-	=1-	=1-	=1-	=1-	=1-	=1-
!!section: Patrem
!!!OMD: Patrem
!	!	!LO:TX:Z=6:t=T quotes Okeghem song T	!	!	!	!	!
1GG	Pa-	1.G	Pa-	1G	Pa-	1g	Pa-
2GG/	-trem	.	.	2B-\	-trem	2g/	-trem
2GG/	om-	2E/	.	2B-\	om-	2g/	om-
=2	=2	=2	=2	=2	=2	=2	=2
2D\	-ni-	1F	.	2A/	-ni-	2a/	-ni-
2D\	-po-	.	.	2D/	-po-	2b-\	-po-
1C	-ten-	1G	.	1E	-ten-	1cc	-ten-
=3	=3	=3	=3	=3	=3	=3	=3
0BB-	-tem,	0B-	-trem...	2F/	-tem,	2dd\	-tem,
.	.	.	.	2F/	fac-	2dd\	fac-
.	.	.	.	2F/	-to-	2dd\	-to-
.	.	.	.	2G/	-rem	2dd\	-rem
=4	=4	=4	=4	=4	=4	=4	=4
0r	.	0c	...ce-	2.A/	ce-	2.cc\	ce-
.	.	.	.	4G/	-li-	4b-\	-li-
.	.	.	.	2F/	et	2a/	et
.	.	.	.	2E/	ter-	2g/	ter-
=5	=5	=5	=5	=5	=5	=5	=5
2.D\	vi-	1.d	-li	1D	-re,	2f/	-re,
.	.	.	.	.	.	2f/	vi-
4D\	-si-	.	.	.	.	.	.
2D\	-bi-	.	.	1r	.	2f/	-si-
2D\	-li-	2c\	.	.	.	2f/	-bi-
=6	=6	=6	=6	=6	=6	=6	=6
1GG	-um.	1B-	.	0r	.	2g/	-li-
.	.	.	.	.	.	2d/	-um
1r	.	1A	et	.	.	2e/	om-
.	.	.	.	.	.	2f/	-ni-
=7	=7	=7	=7	=7	=7	=7	=7
0r	.	1.G	ter-	2r	.	2g/	-um
.	.	.	.	1B-	et	1d	et
.	.	4F/	.	2G/	in-	2d/	in-
.	.	4E/	.	.	.	.	.
=8	=8	=8	=8	=8	=8	=8	=8
0r	.	0D	-re...	2F/	-vi-	2.d/	-vi-
.	.	.	.	2F/	-si-	.	.
.	.	.	.	.	.	4c/	-si-
.	.	.	.	2G/	-bi-	2B-/	-bi-
.	.	.	.	2F#i/	-li-	2A/	-li-
=9	=9	=9	=9	=9	=9	=9	=9
1GG	Et	1B-	...Et	1G	-um.	2G/	-um.
.	.	.	.	.	.	1d	Et
1D	in	1A	in	2r	.	.	.
.	.	.	.	2F/	Et	2d/	in
=10	=10	=10	=10	=10	=10	=10	=10
2GG/	u-	1B-	u-	1G	in	2d/	u-
2GG/	-num	.	.	.	.	2d/	-num
2GG/	do-	1G	-num	1B-	u-	2d/	do-
2GG/	-mi-	.	.	.	.	2d/	-mi-
=11	=11	=11	=11	=11	=11	=11	=11
1D	-num	2F/	do-	2A/	-num	2d/	-num
.	.	1F	-mi-	1d	do-	2d/	Ie-
1D	Ie-	.	.	.	.	1A	-sum
.	.	4E/	-num	2d\	-mi-	.	.
.	.	4F/	.	.	.	.	.
=12	=12	=12	=12	=12	=12	=12	=12
1GG	-sum	1G	Ie-	2d\	-num	1B-	Chri-
.	.	.	.	2d\	Ie-	.	.
[1G	Chri-	[1C	-sum	1e-i	-sum	1c	-stum,
=13	=13	=13	=13	=13	=13	=13	=13
1G]	.	1C]	.	1e-i	Chri-	2r	.
.	.	.	.	.	.	2c/	fi-
1GG	-stum,	1G	Chri-	[1d	-stum.	2B-/	-li-
.	.	.	.	.	.	2G/	-um
=14	=14	=14	=14	=14	=14	=14	=14
1r	.	2F/	-stum,	1d]	.	2A/	de-
.	.	1G	fi-	.	.	2G/	-i
1G	fi-	.	.	1r	.	2B-/	u-
.	.	2E/	-li-	.	.	2c/	-ni-
.	.	.	.	.	.	.	.
=15	=15	=15	=15	=15	=15	=15	=15
2A\	-li-	2F/	-um	0r	.	1d	-ge-
2B-\	-um	2D/	de-	.	.	.	.
1c	de-	1C	-i	.	.	1e-i	-ni-
=16	=16	=16	=16	=16	=16	=16	=16
1.B-	-i	0G	u-	1r	.	0d	-tum.
.	.	.	.	1d	Et	.	.
4A\	u-	.	.	.	.	.	.
4G\	-ni-	.	.	.	.	.	.
=17	=17	=17	=17	=17	=17	=17	=17
1F	-ge-	1D	-ni-	2d\	ex	0r	.
.	.	.	.	2d\	pa-	.	.
1D	-ni-	1F	-ge-	2d\	-tre	.	.
.	.	.	.	2d\	na-	.	.
=18	=18	=18	=18	=18	=18	=18	=18
0AA	-tum.	0E	-ni-	2c\	-tum	0r	.
.	.	.	.	2c\	an-	.	.
.	.	.	.	2c\	-te	.	.
.	.	.	.	2c\	om-	.	.
=19	=19	=19	=19	=19	=19	=19	=19
2r	.	0D	-tum...	2.d\	-ni-	2f/	De-
2D\	De-	.	.	.	.	2f/	-um
.	.	.	.	4c\	-a	.	.
2D\	-um	.	.	2B-\	se-	2f/	de
2D\	de	.	.	2A/	-cu-	2f/	de-
=20	=20	=20	=20	=20	=20	=20	=20
2BB-/	de-	0B-	...de	1G	-la.	2g/	-o,
1GG	-o,	.	.	.	.	2g/	lu-
.	.	.	.	1B-	De	2dd\	-men
2GG/	lu-	.	.	.	.	2dd\	de
=21	=21	=21	=21	=21	=21	=21	=21
2AA/	-men	1c	de-	2A/	-um	2cc\	lu-
2BB-/	de	.	.	4G/	de	4b-\	-mi-
.	.	.	.	4F/	.	4a/	.
2C/	lu-	1c	-o	1E	de-	2g/	-ne,
2AA/	-mi-	.	.	.	.	2cc\	de-
=22	=22	=22	=22	=22	=22	=22	=22
2BB-/	-ne,	0d	ve-	0D	-o.	2b-\	-um
2C/	de-	.	.	.	.	4a/	ve-
.	.	.	.	.	.	4g/	.
2D\	-um	.	.	.	.	2f/	-rum
2BB-/	ve-	.	.	.	.	2dd\	de
=23	=23	=23	=23	=23	=23	=23	=23
2C/	-rum	0e-	.	0r	.	2cc\	de-
2D\	de	.	.	.	.	4b-\	-o
.	.	.	.	.	.	4a/	.
2E-i\	de-	.	.	.	.	1g	ve-
2C/	-o	.	.	.	.	.	.
=24	=24	=24	=24	=24	=24	=24	=24
1D	ve-	1d	-ro	0r	.	0f	-ro.
1D	-ro.	[1f	Ge-	.	.	.	.
=25	=25	=25	=25	=25	=25	=25	=25
0r	.	1f]	.	2d\	Ge-	0r	.
.	.	.	.	2d\	-ni-	.	.
.	.	1B-	.	2d\	-tum,	.	.
.	.	.	.	[2f\	non	.	.
=26	=26	=26	=26	=26	=26	=26	=26
1F	Con-	0A	-ni-	2f\]	.	0r	.
.	.	.	.	2d\	fac-	.	.
1F	-sub-	.	.	1c	-tum,	.	.
=27	=27	=27	=27	=27	=27	=27	=27
1G	-stan-	0B-	-tum...	2r	.	0r	.
.	.	.	.	2B-\	con-	.	.
1G	-ti-	.	.	2B-\	-sub-	.	.
.	.	.	.	2B-\	-stan-	.	.
=28	=28	=28	=28	=28	=28	=28	=28
2F\	-a-	1f	...per	2c\	-ti-	0r	.
2F\	-lem	.	.	2A/	-a-	.	.
1G	pa-	1e	quem	1B-	-lem	.	.
=29	=29	=29	=29	=29	=29	=29	=29
1F	-tri,	1f	om-	1c	pa-	1r	.
1G	per	[1d	-ni-	1B-	-tri,	1g	Per
=30	=30	=30	=30	=30	=30	=30	=30
1F	quem	1d]	.	1r	.	1a	quem
1G	om-	1e	-a	1B-	per	1b-	om-
=31	=31	=31	=31	=31	=31	=31	=31
1F	-ni-	1f	fac-	2c\	quem	2a/	-ni-
.	.	.	.	2f\	om-	2.dd\	-a
1G	-a-	1B-	.	2d\	-ni-	.	.
.	.	.	.	.	.	4cc\	.
.	.	.	.	2e\	-a	[2b-\	fac-
=32	=32	=32	=32	=32	=32	=32	=32
1F	fac-	0c	-ta	1.f	fac-	2b-\]	.
.	.	.	.	.	.	4a/	-ta
.	.	.	.	.	.	4g/	.
1F	-ta	.	.	.	.	1a	sunt.
.	.	.	.	2f\	-ta	.	.
=33	=33	=33	=33	=33	=33	=33	=33
1BB-	sunt.	1.B-	sunt.	1f	sunt.	2d/	Qui
.	.	.	.	.	.	2d/	prop-
1r	.	.	.	1r	.	2d/	-ter
.	.	2A/	Qui	.	.	2c/	nos
=34	=34	=34	=34	=34	=34	=34	=34
0r	.	1G	prop-	0r	.	1B-	ho-
.	.	1F#i	-ter	.	.	1A	-mi-
=35	=35	=35	=35	=35	=35	=35	=35
0r	.	0G	nos	0r	.	2G/	-nes,
.	.	.	.	.	.	2d/	et
.	.	.	.	.	.	2d/	prop-
.	.	.	.	.	.	2d/	-ter
=36	=36	=36	=36	=36	=36	=36	=36
0r	.	0D	ho-	1F	De-	2d/	nos-
.	.	.	.	.	.	2c/	-tram
.	.	.	.	1F	-scen-	2B-/	sa-
.	.	.	.	.	.	2A/	-lu-
=37	=37	=37	=37	=37	=37	=37	=37
0r	.	0E	-mi-	2.G/	-dit	1G	-tem.
.	.	.	.	4A/	.	.	.
.	.	.	.	2B-\	de	1r	.
.	.	.	.	[2c\	ce-	.	.
=38	=38	=38	=38	=38	=38	=38	=38
0r	.	0F	-nes...	4c\]	.	0r	.
.	.	.	.	4B-\	.	.	.
.	.	.	.	4A/	.	.	.
.	.	.	.	4G/	.	.	.
.	.	.	.	1A	.	.	.
=39	=39	=39	=39	=39	=39	=39	=39
1GG	Et	0G	...Et	2G/	-lis.	1d	Et
.	.	.	.	2G/	Et	.	.
2GG/	in-	.	.	2D/	in-	2d/	in-
2GG/	-car-	.	.	2D/	-car-	2d/	-car-
=40	=40	=40	=40	=40	=40	=40	=40
2GG/	-na-	1B-	in-	2G/	-na-	2d/	-na-
2GG/	-tus	.	.	2G/	-tus	2d/	-tus
2D\	est	1A	-car-	2F/	est	2d/	est
2D\	de	.	.	2F/	de	2d/	de
=41	=41	=41	=41	=41	=41	=41	=41
2C/	spi-	0c	-na-	2G/	spi-	2e/	spi-
2F\	-ri-	.	.	2A/	-ri-	2f/	-ri-
2E\	-tu	.	.	2G/	-tu	2g/	-tu
2F\	sanc-	.	.	2c\	sanc-	2a/	sanc-
=42	=42	=42	=42	=42	=42	=42	=42
1BB-	-to	1d	-tus...	1B-	-to	2d/	-to
.	.	.	.	.	.	2f/	ex
1E-	ex	2B-\	...Ma-	2r	.	1g	Ma-
.	.	2c\	.	2G/	ex	.	.
=43	=43	=43	=43	=43	=43	=43	=43
1D	Ma-	2.d\	-ri-	2A/	Ma-	1f	-ri-
.	.	.	.	2B-\	-ri-	.	.
.	.	4c\	.	.	.	.	.
1C	-ri-	2A/	-a	1c	-a	1e	-a
.	.	[2G/	vir-	.	.	.	.
=44	=44	=44	=44	=44	=44	=44	=44
2BB-/	-a	2G/]	.	1d	vir-	2d/	vir-
2GG/	vir-	2B-\	.	.	.	1g	.
1D	-gi-	1A	-gi-	1d	-gi-	.	.
.	.	.	.	.	.	2f#i/	-gi-
=45	=45	=45	=45	=45	=45	=45	=45
1GG	-ne&colon;	[0Gl	-ne.	1B-	-ne&colon;	1g	-ne&colon;
2r	.	.	.	2r	.	2r	.
2GG/	Et	.	.	2B-\	Et	2d/	Et
=46	=46	=46	=46	=46	=46	=46	=46
1C	ho-	0G_	.	1c	ho-	1e-i	ho-
1GG	-mo	.	.	1B-	-mo	1d	-mo
=47	=47	=47	=47	=47	=47	=47	=47
2r	.	0G_	.	2r	.	2r	.
2C/	fac-	.	.	2E-i/	fac-	2c/	fac-
1C	-tus	.	.	1E-i	-tus	1c	-tus
=48	=48	=48	=48	=48	=48	=48	=48
1GG	est.	0G_	.	1D	est.	1B-	est.
1r	.	.	.	1r	.	1r	.
=49	=49	=49	=49	=49	=49	=49	=49
1C	Cru-	0G_	.	2E-i/	Cru-	1c	Cru-
.	.	.	.	2E-i/	-ci-	.	.
2C/	-ci-	.	.	2E-i/	-fi-	2c/	-ci-
[2C/	-fi-	.	.	2E-i/	-xus	[2c/	-fi-
=50	=50	=50	=50	=50	=50	=50	=50
2C/]	.	0G_	.	2E-i/	e-	2c/]	.
2C/	-xus	.	.	2E-i/	-ti-	2c/	-xus
2C/	e-	.	.	[1E-i	-am	2c/	e-
2C/	-ti-	.	.	.	.	2c/	-ti-
=51	=51	=51	=51	=51	=51	=51	=51
2C/	-am	0G_	.	2E-/]	.	2c/	-am
2C/	prop-	.	.	2C/	pro	2c/	prop-
1C	no-	.	.	1E-i	no-	1c	no-
=52	=52	=52	=52	=52	=52	=52	=52
1GG	-bis;	0G_	.	1D	-bis;	2d/	-bis;
.	.	.	.	.	.	2d/	sub
2r	.	.	.	2r	.	2d/	Pon-
2GG/	sub	.	.	2D/	sub	2B-/	-ti-
=53	=53	=53	=53	=53	=53	=53	=53
2C/	Pon-	0G_	.	2E-i/	Pon-	2c/	-o
2BB-/	-ti-	.	.	2D/	-ti-	2d/	Pi-
2GG/	-o.	.	.	2G/	-o.	2B-/	-la-
2C/	Pi-	.	.	2E-i/	Pi-	2c/	-to
=54	=54	=54	=54	=54	=54	=54	=54
2BB-/	-la-	0G_	.	2D/	-la-	2d/	pas-
2GG/	-to	.	.	2G/	-to	2B-/	-sus
2C/	pas-	.	.	2E-i/	pas-	2c/	et
2BB-/	-sus	.	.	2D/	-sus	2d/	se-
=55	=55	=55	=55	=55	=55	=55	=55
2GG/	et	0G_	.	2G/	et	2B-/	-pul
2C/	se-	.	.	2C/	se-	2c/	.
2C/	-pul	.	.	2c\	-pul	1e-i	-tus
2C/	-tus	.	.	2c\	-tus	.	.
=56	=56	=56	=56	=56	=56	=56	=56
0GGl	est.	0G]	.	0B-l	est.	0dl	est.
!!LO:LB:i:g=z
=57||	=57||	=57||	=57||	=57||	=57||	=57||	=57||
*>B	*	*>B	*	*>B	*	*>B	*
*k[b-]	*	*k[b-]	*	*k[b-]	*	*k[b-]	*
*M2/1	*	*M2/1	*	*M2/1	*	*M2/1	*
*met(C|)	*	*met(C|)	*	*met(C|)	*	*met(C|)	*
!!section: Et resurrexit
!!!OMD: Et resurrexit
!	!	!LO:TX:Z=6:t=T quotes Okeghem song T	!	!	!	!	!
0r	.	1G	Et	1d	Et	0r	.
.	.	2G	re-	2B-\	re-	.	.
.	.	2E/	-sur-	2c\	-sur-	.	.
=58	=58	=58	=58	=58	=58	=58	=58
0r	.	1F	-re-	1A	-re-	0r	.
.	.	1G	-xit	2G/	-xit	.	.
.	.	.	.	[2d\	ter-	.	.
=59	=59	=59	=59	=59	=59	=59	=59
1r	.	1B-	ter-	4d\]	.	1r	.
.	.	.	.	4c\	.	.	.
.	.	.	.	1B-	.	.	.
1G	Ter-	1B-	-ti-	.	.	1b-	Ter-
.	.	.	.	4A/	-ti-	.	.
.	.	.	.	4G/	.	.	.
=60	=60	=60	=60	=60	=60	=60	=60
2A\	-ti-	1c	-a	1F	-a	2a/	-ti-
2F\	-a	.	.	.	.	2a/	-a
1E	di-	1c	di-	1G	di-	1g	di-
=61	=61	=61	=61	=61	=61	=61	=61
1D	-e.	1.d	-e	1A	-e...	2f/	-e
.	.	.	.	.	.	2f/	se-
1r	.	.	.	1r	.	2b-\	-cun-
.	.	2c\	se-	.	.	[2a/	dum
=62	=62	=62	=62	=62	=62	=62	=62
0r	.	1B-	-cun-	0r	.	4a/]	.
.	.	.	.	.	.	4g/	scrip-
.	.	.	.	.	.	1g	-tu-
.	.	1A	-dum	.	.	.	.
.	.	.	.	.	.	2f#i/	.
=63	=63	=63	=63	=63	=63	=63	=63
2r	.	1.G	scrip-	0r	.	0g	-ras.
2B-\	Et	.	.	.	.	.	.
2B-\	a-	.	.	.	.	.	.
2B-\	-scen-	4F/	-tu-	.	.	.	.
.	.	4E/	.	.	.	.	.
=64	=64	=64	=64	=64	=64	=64	=64
2B-\	-dit	0D	-ras...	2r	.	0r	.
2B-\	in	.	.	2d\	Se-	.	.
1A	ce-	.	.	2d\	-det	.	.
.	.	.	.	2d\	ad	.	.
=65	=65	=65	=65	=65	=65	=65	=65
1G	-lum.	1B-	...Et	2d\	dex-	0r	.
.	.	.	.	2d\	-te-	.	.
1r	.	1A	.	2e\	-ram	.	.
.	.	.	.	2f\	pa-	.	.
=66	=66	=66	=66	=66	=66	=66	=66
2r	.	1B-	i-	2g\	-tris.	2r	.
2GG/	Et	.	.	2G/	Et	2d/	Et
2GG/	i-	1G	-te-	2B-\	i-	2d/	i-
2GG/	-te-	.	.	2B-\	-te-	2d/	-te-
=67	=67	=67	=67	=67	=67	=67	=67
2D\	-rum	2F/	-rum	2B-\	-rum	2d/	-rum
2D\	ven-	1F	ven-	2B-\	ven-	2d/	ven-
2D\	-tu-	.	.	2A/	-tu-	2d/	-tu-
2D\	-rus	4E/	.	2A/	-rus	2d/	-rus
.	.	4F/	.	.	.	.	.
=68	=68	=68	=68	=68	=68	=68	=68
2GG/	est	1G	-tu-	2G/	est	2d/	est
2GG/	cum	.	.	2G/	cum	2d/	cum
2AA/	glo-	[1C	-rus	2E/	glo-	2c/	glo-
2AA/	-ri-	.	.	2E/	-ri-	2c/	-ri-
=69	=69	=69	=69	=69	=69	=69	=69
2FF/	-a	1C]	.	2F/	-a	2A/	-a
2AA/	iu-	.	.	2C/	iu-	2A/	iu-
2GG/	-di-	1G	est...	2D/	-di-	2B-/	-di-
2GG/	-ca-	.	.	2D/	-ca-	2B-/	-ca-
=70	=70	=70	=70	=70	=70	=70	=70
2AA/	-re-	2F/	vi-	2C/	-re-	2c/	-re
2BB-/	vi-	1G	.	2D/	vi-	2B-/	vi-
1C	-vos	.	.	1E/	-vos	2G/	-vos
.	.	2E/	-vos	.	.	[2A/	et
.	.	.	.	.	.	.	.
=71	=71	=71	=71	=71	=71	=71	=71
2D\	et	2F/	et	2D/	et	2A/]	.
2BB-/	mor-	2D/	mor-	1G	mor-	2G/	mor-
1AA	-tu-	1C	-tu-	.	.	1c	-tu-
.	.	.	.	2F#i/	-tu-	.	.
=72	=72	=72	=72	=72	=72	=72	=72
0GG	-os;	0G	-os...	1G	-os.	2B-/	-os;
.	.	.	.	.	.	2B-/	cu-
.	.	.	.	1r	.	2B-/	-ius
.	.	.	.	.	.	2B-/	re-
=73	=73	=73	=73	=73	=73	=73	=73
0D	.	1D	...fi-	0r	.	2A/	-gni
.	.	.	.	.	.	2.d/	non
.	.	1F	.	.	.	.	.
.	.	.	.	.	.	4e/	e-
.	.	.	.	.	.	2f/	-rit
=74	=74	=74	=74	=74	=74	=74	=74
0r	.	0E	.	0r	.	4g/	fi-
.	.	.	.	.	.	4f/	.
.	.	.	.	.	.	4e/	.
.	.	.	.	.	.	4d/	.
.	.	.	.	.	.	2.c#i/	.
.	.	.	.	.	.	4Bni/	.
=75	=75	=75	=75	=75	=75	=75	=75
2r	.	0D	-nis...	2F/	Et	[0d	-nis.
2A\	Et	.	.	2F/	in	.	.
2A\	in	.	.	2F/	spi-	.	.
2A\	spi-	.	.	2F/	-ri-	.	.
=76	=76	=76	=76	=76	=76	=76	=76
2B-\	-ri-	0B-	...Et	2G/	-tum	0d]	.
1G	-tum	.	.	1B-	sanc-	.	.
2B-\	sanc-	.	.	2G/	-tum,	.	.
=77	=77	=77	=77	=77	=77	=77	=77
2A\	-tum,	1c	vi-	1F	do-	0r	.
2F\	do-	.	.	.	.	.	.
1E	-mi-	1c	-vi-	1G	-mi-	.	.
=78	=78	=78	=78	=78	=78	=78	=78
0D	-num;	0d	fi-	0A	-num;	2r	.
.	.	.	.	.	.	2f/	Et
.	.	.	.	.	.	2f/	vi-
.	.	.	.	.	.	2f/	-vi-
=79	=79	=79	=79	=79	=79	=79	=79
0r	.	0e-i	-can-	0r	.	4g/	-fi-
.	.	.	.	.	.	4f/	.
.	.	.	.	.	.	4e-i/	.
.	.	.	.	.	.	4d/	.
.	.	.	.	.	.	2.c/	-can-
.	.	.	.	.	.	4B-/	.
=80	=80	=80	=80	=80	=80	=80	=80
2r	.	1d	-tem	2r	.	2d/	-tem;
2BB-/	qui	.	.	2B-\	qui	2d/	qui
2BB-/	ex	[1f	Qui	2B-\	ex	2d/	ex
2BB-/	pa-	.	.	2B-\	pa-	2d/	pa-
=81	=81	=81	=81	=81	=81	=81	=81
2BB-/	-tre	1f]	.	2F/	-tre	2d/	-tre
2BB-/	fi-	.	.	2F/	fi-	2d/	fi-
2BB-/	-li-	1B-	ex	2F/	-li-	2d/	-li-
2BB-/	-o-	.	.	2G/	-o-	2d/	-o-
=82	=82	=82	=82	=82	=82	=82	=82
2F\	-que	0A	pa-	2A/	-que	2c/	-que
2D\	pro-	.	.	1F	pro-	2d/	pro-
1C	-ce-	.	.	.	.	1e	-ce-
.	.	.	.	2E/	-ce-	.	.
=83	=83	=83	=83	=83	=83	=83	=83
2BB-/	-dit.	0B-	-tre	2F/	-dit.	1d	-dit.
2BB-/	Qui	.	.	2F/	Qui	.	.
2E-i\	cum	.	.	2G/	cum	1r	.
2E-i\	pa-	.	.	2G/	pa-	.	.
=84	=84	=84	=84	=84	=84	=84	=84
2D\	-tre	1f	fi-	2F/	-tre	0r	.
2BB-/	et	.	.	2B-\	et	.	.
2C/	fi-	1e	-li-	2G/	fi-	.	.
2C/	-li-	.	.	2A/	-li-	.	.
=85	=85	=85	=85	=85	=85	=85	=85
0BB-	-o;	1f	-o-	1D	-o;	2f/	Si-
.	.	.	.	.	.	2f/	-mul
.	.	[1d	-que	1r	.	2f/	ad-
.	.	.	.	.	.	2f/	-o-
=86	=86	=86	=86	=86	=86	=86	=86
0r	.	1d]	.	0r	.	2f/	-ra-
.	.	.	.	.	.	2f/	-tur
.	.	1e	pro-	.	.	2g/	et
.	.	.	.	.	.	2g/	con-
=87	=87	=87	=87	=87	=87	=87	=87
0r	.	1f	-ce-	0r	.	2f/	-glo-
.	.	.	.	.	.	2f/	-ri-
.	.	1B-	.	.	.	2g/	-fi-
.	.	.	.	.	.	[2b-\	-ca-
=88	=88	=88	=88	=88	=88	=88	=88
2F\	qui	0c	-dit...	2r	.	2b-\]	.
2F\	lo-	.	.	2F/	qui	4a/	.
.	.	.	.	.	.	4g/	.
2F\	-cu-	.	.	2F/	lo-	1a	-tur.
2F\	-tus	.	.	2F/	-cu-	.	.
=89	=89	=89	=89	=89	=89	=89	=89
2BB-/	est	1.B-	...Qui	2F/	-tus	0r	.
2E-i\	per	.	.	2G/	est	.	.
2D\	pro-	.	.	2F/	per	.	.
[2C/	-phe-	2A/	lo-	[2E/	pro-	.	.
=90	=90	=90	=90	=90	=90	=90	=90
2C/]	.	1G	-cu	4E/]	.	2g/	Et
.	.	.	.	4D/	.	.	.
2BB-/	.	.	.	1D	-phe-	2g/	u-
1AA	.	1F#i	-tus	.	.	2cc\	-nam
.	.	.	.	2C/	.	2cc\	sanc-
=91	=91	=91	=91	=91	=91	=91	=91
1GG	-tas.	0G	est	1D	-tas.	2b-\	-tam
.	.	.	.	.	.	2b-\	ca-
1r	.	.	.	2r	.	2b-\	-tho-
.	.	.	.	2d\	Et	2b-\	-li-
=92	=92	=92	=92	=92	=92	=92	=92
2r	.	0D	per	2.d\	a-	1a	-cam.
2F\	Ec-	.	.	.	.	.	.
.	.	.	.	4c\	-pos-	.	.
2F\	-cle-	.	.	2B-\	-to-	1r	.
2F\	-si-	.	.	2A/	-li-	.	.
=93	=93	=93	=93	=93	=93	=93	=93
1G	-am.	0E	pro-	2.G/	-cam	2r	.
.	.	.	.	.	.	2g/	Con-
.	.	.	.	4A/	ec-	.	.
1r	.	.	.	2B-\	-cle-	2g/	-fi-
.	.	.	.	2c\	-si-	2g/	-te-
=94	=94	=94	=94	=94	=94	=94	=94
0r	.	0F	-phe-	1A	-am.	2a/	-or
.	.	.	.	.	.	2a/	u-
.	.	.	.	1r	.	2a/	-num
.	.	.	.	.	.	2a/	bap-
=95	=95	=95	=95	=95	=95	=95	=95
2r	.	0G	-tas...	0r	.	2.b-\	-tis-
2G\	In	.	.	.	.	.	.
.	.	.	.	.	.	4g/	.
2G\	re-	.	.	.	.	1g	-ma.
2G\	-mis-	.	.	.	.	.	.
=96	=96	=96	=96	=96	=96	=96	=96
2G\	-si-	1B-	...Et	0r	.	1r	.
2G\	-o-	.	.	.	.	.	.
2F\	-nem	1A	vi-	.	.	2r	.
[2A\	pec-	.	.	.	.	2a/	Et
=97	=97	=97	=97	=97	=97	=97	=97
2A\]	.	0c	-tam	1F	Pec-	1a	ex-
2F\	-ca-	.	.	.	.	.	.
1E	-to-	.	.	2G/	-ca-	1g	-spec-
.	.	.	.	2G/	-to-	.	.
=98	=98	=98	=98	=98	=98	=98	=98
1D	-rum.	1d	ven-	1A	-rum.	1f	-to
1r	.	2B-\	-tu-	1r	.	2g/	re-
.	.	2c\	-ri	.	.	2e/	-sur-
=99	=99	=99	=99	=99	=99	=99	=99
0r	.	2.d\	se-	0r	.	2f/	-rec-
.	.	.	.	.	.	2g/	-ti-
.	.	4c\	.	.	.	.	.
.	.	2A/	-cu-	.	.	2a/	-o-
.	.	[2G/	-li.	.	.	2d/	-nem
=100	=100	=100	=100	=100	=100	=100	=100
0r	.	2G/]	.	0r	.	2e/	mor-
.	.	2B-\	A-	.	.	1g	-tu-
.	.	1A	.	.	.	.	.
.	.	.	.	.	.	2f#i/	-o-
=101	=101	=101	=101	=101	=101	=101	=101
1r	.	[0Gl	-men.	2r	.	1g	-rum.
.	.	.	.	2d\	Et	.	.
2r	.	.	.	2e-i\	vi-	2r	.
2GG/	Et	.	.	2d\	-tam	2d/	Et
=102	=102	=102	=102	=102	=102	=102	=102
2C/	vi-	0G_	.	2c\	ven-	2e-/	vi-
2GG/	-tam	.	.	2B-\	-tu-	2d/	-tam
2C/	ven-	.	.	2e-i\	-ri	2c/	ven-
2GG/	-tu-	.	.	2d\	se-	2B-/	-tu-
=103	=103	=103	=103	=103	=103	=103	=103
2C/	-ri	0G_	.	2c\	-cu-	2e-/	-ri
2GG/	se-	.	.	2B-\	-li.	2d/	se-
2C/	-cu-	.	.	2e-i\	A-	2c/	-cu-
2GG/	-li.	.	.	2d\	.	2B-/	-li.
=104	=104	=104	=104	=104	=104	=104	=104
0C	A-	0G_	.	2c\	.	1.e-i	A-
.	.	.	.	2G/	.	.	.
.	.	.	.	1c	.	.	.
.	.	.	.	.	.	4d/	.
.	.	.	.	.	.	4c/	.
=105	=105	=105	=105	=105	=105	=105	=105
0GGl	-men.	0G]	.	0B-l	-men.	0dl	-men.
==	==	==	==	==	==	==	==
*-	*-	*-	*-	*-	*-	*-	*-
!!!RDF**kern: l=long note in original notation
!!!RDF**kern: i=editorial accidental
!!!RDF**kern: V=start of tuplet marker
!!!RDF**kern: Z=end of tuplet marker
!!!ENC: Jesse Rodin 2012/02/24
!!!END: 2012/02/24/
!!!EED: Jesse Rodin
!!!EEV: 2012/03/22/
!!attribution-level@Jos: 2 (provisionally attributable [parentheses checkmark])
!!!ONB: Translated from MusicXML and edited on 2012/03/22/ by Craig Sapp
!!muse2ps: T^@{OPR}^u^@{ONM}{. }@{OTL}^C^@{COM}^i2I150v90,90,90,120c122z18l2700t130
